X: 58
T:You Shall Go Out With Joy
% Nottingham Music Database
S:Chris McDouall, via EF
M:4/4
L:1/4
K:Dm
Ad e|"Dm"f2 ed-|"Dm"dA de|"Dm"f2 ed-|"Dm"d2 "C7"fg|"F"aa -aa|"Bb"b2 "F"a2|\
"C"gc'2b|"A7"ag fe|
"Dm"f2 ed-|"Dm"dA de|"Dm"ff ed-|"Dm"de fg|"Gm"a2 g2|"A7"f2 e2|"Dm"d4-|\
"Dm"de fg||
"F"aa2a|"Bb"b2 "F"a2|"C"g2 gc'-|"C"c'2 ef|"C"gg2g|"F"a2 "C"g2|"Dm"fg2a-|
"Dm"a2 "C7"fg|"F"aa2a|"Bb"b2 "F"a2|"C"g2 gc'-|"C"c'3g|"Gm"a2 g2|"A7"f2 e2|\
"Dm"d4-|"Dm"d3||


